X:2
T:Funkallero
C:Bill Evans
L:1/8
M:C
I:linebreak $
K:Eb
"Ab6" z FAB |"Bb7" =B4 B4- |"Eb7" B2 =Bc A2 _B2 |"Ab6" =E4 E4- |$"Fm" E2 F2 A2 B2 |"Bb7" =B4 B4- |
"Eb7" B2 =Bc A2 _B2 |"Ab6" =E4 E4- |"Ab6" E2 F2 A2 c2 ||$[K:Db]"Ebm" f4"Eb7" f4- |
"Ab7" f2 e2"D7" afed |"Db" cA=AB-"Gb7" B4- |"Fm" B4"Bbm" z FAB ||$[K:Ab]"Bb7" =B4 B4- |
"Eb7" B2 =Bc A2 _B2 |"Ab6" =E8 |]

